Numix/16/status/indicator-keyboard-Cr-3.svg

<?xml version="1.0" encoding="UTF-8" standalone="no"?>
<svg
   xmlns:dc="http://purl.org/dc/elements/1.1/"
   xmlns:cc="http://creativecommons.org/ns#"
   xmlns:rdf="http://www.w3.org/1999/02/22-rdf-syntax-ns#"
   xmlns:svg="http://www.w3.org/2000/svg"
   xmlns="http://www.w3.org/2000/svg"
   xmlns:sodipodi="http://sodipodi.sourceforge.net/DTD/sodipodi-0.dtd"
   xmlns:inkscape="http://www.inkscape.org/namespaces/inkscape"
   viewBox="0 0 16 16"
   id="svg2"
   version="1.1"
   inkscape:version="0.91 r13725"
   sodipodi:docname="indicator-keyboard-Cr-3.svg">
  <metadata
     id="metadata14">
    <rdf:RDF>
      <cc:Work
         rdf:about="">
        <dc:format>image/svg+xml</dc:format>
        <dc:type
           rdf:resource="http://purl.org/dc/dcmitype/StillImage" />
      </cc:Work>
    </rdf:RDF>
  </metadata>
  <defs
     id="defs12" />
  <sodipodi:namedview
     pagecolor="#ffffff"
     bordercolor="#666666"
     borderopacity="1"
     objecttolerance="10"
     gridtolerance="10"
     guidetolerance="10"
     inkscape:pageopacity="0"
     inkscape:pageshadow="2"
     inkscape:window-width="640"
     inkscape:window-height="480"
     id="namedview10"
     showgrid="false"
     inkscape:zoom="14.75"
     inkscape:cx="8"
     inkscape:cy="8"
     inkscape:window-x="75"
     inkscape:window-y="34"
     inkscape:window-maximized="0"
     inkscape:current-layer="svg2" />
  <path
     style="fill:#ececec;fill-opacity:1"
     d="M 1.5996094 0 C 0.71320937 2.9605947e-16 0 0.71320937 0 1.5996094 L 0 14.400391 C 2.9605947e-16 15.286791 0.71320937 16 1.5996094 16 L 14.400391 16 C 15.286791 16 16 15.286791 16 14.400391 L 16 1.5996094 C 16 0.71320937 15.286791 0 14.400391 0 L 1.5996094 0 z M 5.328125 4.7246094 C 5.562125 4.7246094 5.7747969 4.7395312 5.9667969 4.7695312 C 6.1587969 4.7995313 6.3267031 4.8387187 6.4707031 4.8867188 C 6.6147031 4.9287188 6.7378437 4.9734844 6.8398438 5.0214844 C 6.9418437 5.0634844 7.0202188 5.1026719 7.0742188 5.1386719 L 6.8769531 5.6699219 C 6.7269531 5.5799219 6.5347812 5.4922031 6.3007812 5.4082031 C 6.0727813 5.3182031 5.7873125 5.2734375 5.4453125 5.2734375 C 5.0553125 5.2734375 4.7139219 5.3387031 4.4199219 5.4707031 C 4.1319219 5.6027031 3.8874531 5.7892969 3.6894531 6.0292969 C 3.4914531 6.2692969 3.3422344 6.5547656 3.2402344 6.8847656 C 3.1442344 7.2147656 3.0957031 7.5804219 3.0957031 7.9824219 C 3.0957031 8.3964219 3.1442344 8.7714219 3.2402344 9.1074219 C 3.3422344 9.4374219 3.4896406 9.719125 3.6816406 9.953125 C 3.8736406 10.187125 4.1068125 10.366188 4.3828125 10.492188 C 4.6648125 10.618187 4.9857031 10.681641 5.3457031 10.681641 C 5.7417031 10.681641 6.0719375 10.646219 6.3359375 10.574219 C 6.6059375 10.496219 6.8112188 10.417844 6.9492188 10.339844 L 7.1191406 10.861328 C 7.0771406 10.891328 7.0043438 10.928703 6.9023438 10.970703 C 6.8003437 11.006703 6.671625 11.045891 6.515625 11.087891 C 6.359625 11.129891 6.1805625 11.161547 5.9765625 11.185547 C 5.7725625 11.215547 5.5449688 11.230469 5.2929688 11.230469 C 4.8909688 11.230469 4.5159687 11.159625 4.1679688 11.015625 C 3.8259687 10.871625 3.5255781 10.660766 3.2675781 10.384766 C 3.0155781 10.108765 2.8140625 9.7691875 2.6640625 9.3671875 C 2.5200625 8.9591875 2.4492188 8.4946562 2.4492188 7.9726562 C 2.4492188 7.4506563 2.5256406 6.9898906 2.6816406 6.5878906 C 2.8436406 6.1798906 3.0563125 5.8365469 3.3203125 5.5605469 C 3.5843125 5.2845469 3.8902812 5.0774531 4.2382812 4.9394531 C 4.5862813 4.7954531 4.950125 4.7246094 5.328125 4.7246094 z M 9.7324219 6.3535156 C 9.9244221 6.3535156 10.105437 6.3684375 10.273438 6.3984375 C 10.447437 6.4284375 10.566812 6.4582812 10.632812 6.4882812 L 10.515625 6.9921875 C 10.467625 6.9681875 10.36875 6.9439219 10.21875 6.9199219 C 10.07475 6.8899219 9.8825783 6.875 9.6425781 6.875 C 9.3905781 6.875 9.18725 6.8936875 9.03125 6.9296875 C 8.88125 6.9656875 8.782375 6.9955312 8.734375 7.0195312 L 8.734375 11.095703 L 8.1484375 11.095703 L 8.1484375 6.6582031 C 8.2984375 6.5922031 8.5055312 6.5269375 8.7695312 6.4609375 C 9.0335312 6.3889375 9.3544219 6.3535156 9.7324219 6.3535156 z M 12.183594 8.7539062 C 12.386394 8.7539062 12.558825 8.7793781 12.703125 8.8300781 C 12.851325 8.8807781 12.974766 8.953275 13.072266 9.046875 C 13.169766 9.136575 13.242263 9.2463 13.289062 9.375 C 13.335862 9.4997999 13.359375 9.6350031 13.359375 9.7832031 C 13.359375 10.021103 13.294716 10.217041 13.166016 10.369141 C 13.041216 10.517341 12.878588 10.625106 12.679688 10.691406 C 12.788888 10.718706 12.894694 10.759859 12.996094 10.818359 C 13.101394 10.872959 13.195444 10.945456 13.277344 11.035156 C 13.359244 11.120956 13.425862 11.226762 13.476562 11.351562 C 13.527262 11.476362 13.550781 11.623316 13.550781 11.791016 C 13.550781 11.962616 13.521384 12.119372 13.458984 12.263672 C 13.400484 12.407972 13.310353 12.535331 13.189453 12.644531 C 13.072453 12.749831 12.921581 12.834084 12.738281 12.896484 C 12.554981 12.954984 12.341403 12.984375 12.095703 12.984375 C 11.967003 12.984375 11.847481 12.974578 11.738281 12.955078 C 11.632981 12.939478 11.538931 12.919884 11.457031 12.896484 C 11.375131 12.873084 11.304594 12.849572 11.246094 12.826172 C 11.191494 12.802772 11.150347 12.783178 11.123047 12.767578 L 11.222656 12.427734 C 11.246056 12.443334 11.285244 12.462928 11.339844 12.486328 C 11.394444 12.509728 11.459104 12.533241 11.533203 12.556641 C 11.611203 12.576141 11.697416 12.593775 11.791016 12.609375 C 11.888516 12.624975 11.994322 12.632813 12.107422 12.632812 C 12.477922 12.632812 12.742444 12.556397 12.902344 12.404297 C 13.062244 12.248297 13.142578 12.040597 13.142578 11.779297 C 13.142578 11.607697 13.109269 11.464663 13.042969 11.351562 C 12.980569 11.238462 12.892397 11.148331 12.779297 11.082031 C 12.670097 11.011831 12.540778 10.962847 12.392578 10.935547 C 12.248278 10.904347 12.095441 10.888672 11.931641 10.888672 L 11.873047 10.888672 L 11.873047 10.574219 L 12.007812 10.574219 C 12.113112 10.574219 12.218925 10.564422 12.328125 10.544922 C 12.441225 10.521522 12.543113 10.480375 12.632812 10.421875 C 12.726412 10.363375 12.802828 10.285 12.861328 10.1875 C 12.923728 10.09 12.955078 9.9646001 12.955078 9.8125 C 12.955078 9.6838 12.933525 9.5760281 12.890625 9.4863281 C 12.847725 9.3927281 12.788944 9.3182719 12.714844 9.2636719 C 12.644644 9.2090719 12.560391 9.1698844 12.462891 9.1464844 C 12.369291 9.1191844 12.271316 9.1054687 12.166016 9.1054688 C 11.955416 9.1054688 11.790828 9.1348594 11.673828 9.1933594 C 11.556829 9.2518594 11.460819 9.3067219 11.386719 9.3574219 L 11.222656 9.0585938 C 11.261656 9.0312937 11.310641 8.9999437 11.369141 8.9648438 C 11.431541 8.9297438 11.504038 8.8964344 11.585938 8.8652344 C 11.667838 8.8340344 11.757969 8.8085625 11.855469 8.7890625 C 11.956869 8.7656625 12.066594 8.7539062 12.183594 8.7539062 z "
     id="path4" />
</svg>

<svg xmlns="http://www.w3.org/2000/svg" viewBox="0 0 16 16">
 <path d="m 1.6 0 c -0.886 0 -1.6 0.713 -1.6 1.6 l 0 12.801 c 0 0.886 0.713 1.6 1.6 1.6 l 12.801 0 c 0.886 0 1.6 -0.713 1.6 -1.6 l 0 -12.801 c 0 -0.886 -0.713 -1.6 -1.6 -1.6 l -12.801 0 z m 3.729 4.725 c 0.234 0 0.447 0.015 0.639 0.045 c 0.192 0.03 0.36 0.069 0.504 0.117 c 0.144 0.042 0.267 0.087 0.369 0.135 c 0.102 0.042 0.18 0.081 0.234 0.117 l -0.197 0.531 c -0.15 -0.09 -0.342 -0.178 -0.576 -0.262 c -0.228 -0.09 -0.513 -0.135 -0.855 -0.135 c -0.39 0 -0.731 0.065 -1.025 0.197 c -0.288 0.132 -0.532 0.319 -0.73 0.559 c -0.198 0.24 -0.347 0.525 -0.449 0.855 c -0.096 0.33 -0.145 0.696 -0.145 1.098 c 0 0.414 0.049 0.789 0.145 1.125 c 0.102 0.33 0.249 0.612 0.441 0.846 c 0.192 0.234 0.425 0.413 0.701 0.539 c 0.282 0.126 0.603 0.189 0.963 0.189 c 0.396 0 0.726 -0.035 0.99 -0.107 c 0.27 -0.078 0.475 -0.156 0.613 -0.234 l 0.17 0.521 c -0.042 0.03 -0.115 0.067 -0.217 0.109 c -0.102 0.036 -0.231 0.075 -0.387 0.117 c -0.156 0.042 -0.335 0.074 -0.539 0.098 c -0.204 0.03 -0.432 0.045 -0.684 0.045 c -0.402 0 -0.777 -0.071 -1.125 -0.215 c -0.342 -0.144 -0.642 -0.355 -0.9 -0.631 c -0.252 -0.276 -0.454 -0.616 -0.604 -1.018 c -0.144 -0.408 -0.215 -0.873 -0.215 -1.395 c 0 -0.522 0.076 -0.983 0.232 -1.385 c 0.162 -0.408 0.375 -0.751 0.639 -1.027 c 0.264 -0.276 0.57 -0.483 0.918 -0.621 c 0.348 -0.144 0.712 -0.215 1.09 -0.215 z m 4.404 1.629 c 0.192 0 0.373 0.015 0.541 0.045 c 0.174 0.03 0.293 0.06 0.359 0.09 l -0.117 0.504 c -0.048 -0.024 -0.147 -0.048 -0.297 -0.072 c -0.144 -0.03 -0.336 -0.045 -0.576 -0.045 c -0.252 0 -0.455 0.019 -0.611 0.055 c -0.15 0.036 -0.249 0.066 -0.297 0.09 l 0 4.076 l -0.586 0 l 0 -4.437 c 0.15 -0.066 0.357 -0.131 0.621 -0.197 c 0.264 -0.072 0.585 -0.107 0.963 -0.107 z m 2.451 2.4 c 0.203 0 0.375 0.025 0.52 0.076 c 0.148 0.051 0.272 0.123 0.369 0.217 c 0.097 0.09 0.17 0.199 0.217 0.328 c 0.047 0.125 0.07 0.26 0.07 0.408 c 0 0.238 -0.065 0.434 -0.193 0.586 c -0.125 0.148 -0.287 0.256 -0.486 0.322 c 0.109 0.027 0.215 0.068 0.316 0.127 c 0.105 0.055 0.199 0.127 0.281 0.217 c 0.082 0.086 0.149 0.192 0.199 0.316 c 0.051 0.125 0.074 0.272 0.074 0.439 c 0 0.172 -0.029 0.328 -0.092 0.473 c -0.058 0.144 -0.149 0.272 -0.27 0.381 c -0.117 0.105 -0.268 0.19 -0.451 0.252 c -0.183 0.059 -0.397 0.088 -0.643 0.088 c -0.129 0 -0.248 -0.01 -0.357 -0.029 c -0.105 -0.016 -0.199 -0.035 -0.281 -0.059 c -0.082 -0.023 -0.152 -0.047 -0.211 -0.07 c -0.055 -0.023 -0.096 -0.043 -0.123 -0.059 l 0.1 -0.34 c 0.023 0.016 0.063 0.035 0.117 0.059 c 0.055 0.023 0.119 0.047 0.193 0.07 c 0.078 0.019 0.164 0.037 0.258 0.053 c 0.097 0.016 0.203 0.023 0.316 0.023 c 0.37 0 0.635 -0.076 0.795 -0.229 c 0.16 -0.156 0.24 -0.364 0.24 -0.625 c 0 -0.172 -0.033 -0.315 -0.1 -0.428 c -0.062 -0.113 -0.151 -0.203 -0.264 -0.27 c -0.109 -0.07 -0.239 -0.119 -0.387 -0.146 c -0.144 -0.031 -0.297 -0.047 -0.461 -0.047 l -0.059 0 l 0 -0.314 l 0.135 0 c 0.105 0 0.211 -0.01 0.32 -0.029 c 0.113 -0.023 0.215 -0.065 0.305 -0.123 c 0.094 -0.059 0.17 -0.137 0.229 -0.234 c 0.062 -0.098 0.094 -0.223 0.094 -0.375 c 0 -0.129 -0.022 -0.236 -0.064 -0.326 c -0.043 -0.094 -0.102 -0.168 -0.176 -0.223 c -0.07 -0.055 -0.154 -0.094 -0.252 -0.117 c -0.094 -0.027 -0.192 -0.041 -0.297 -0.041 c -0.211 0 -0.375 0.029 -0.492 0.088 c -0.117 0.059 -0.213 0.113 -0.287 0.164 l -0.164 -0.299 c 0.039 -0.027 0.088 -0.059 0.146 -0.094 c 0.062 -0.035 0.135 -0.068 0.217 -0.1 c 0.082 -0.031 0.172 -0.057 0.27 -0.076 c 0.101 -0.023 0.211 -0.035 0.328 -0.035 z" style="fill:#ececec;fill-opacity:1"/>
</svg>
